X:1
T:A Major Daniel Read, 1793 (Revised 1804)
T:Isaac Watts, 1719 (Psalm 133)    668. 668.
T:Friendship No Copyright. Transcribed from The Columbian Harmonist, 1807.
%%score [ 1 2 3 4 ]
L:1/8
M:2/4
K:A
V:1 treble nm="Treble" snm="Tr."
V:2 treble nm="Counter" snm="C."
V:3 treble-8 nm="Tenor" snm="T."
V:4 bass nm="Bass" snm="B."
V:1
 e2 | c2 B>A | A2 G2 | A2 d>B | e2 BG | E2 AG | A4 | z2 e2 | fe dc | dc BA | fe dc | %11
w: 1.~How|plea- sant *|'tis to|see Kin- *|dred and *|friends a- *|gree.|Each|in * their *|pro- * per *|sta- * tion *|
 B3"^And         each                ful         -        fill                   their" z | z4 | %13
w: move,||
 z4 |"^part," z2 z B | AE AB | c2 B2 | B3 B | ce dB | ce Ad | cB AG | A3 e | ec ea | ec Af | %24
w: |With|sym- * pa- *|thi- zing|heart, In|all * the *|cares * of *|life * and *|love! In|all * the *|cares * of *|
 ed cB | c4 |] %26
w: life * and *|love!|
V:2
 E2 | E2 E2 | C2 CD | E2 B,2 | E2 E2 | E2 E2 | C4 | %7
w: 2.~'Tis|like the|oint- ment *|shed On|Aa- ro'ns|sac- red|head,|
"^Di       -       vine       -         ly                        rich,             di       -       vine         -          ly                       sweet," z4 | %8
w: |
 z4 | z4 | z4 | z2 E2 | FE FA | GB AG | A3 E | A2 A2 | A2 F2 | G3 G | A2 F2 | G2 F2 | E2 E2 | %21
w: |||The|oil * through *|all * the *|room Dif-|fused a|choice per-|fume, Ran|through his|robes, and|blessed his|
 E3 E | E3 E | E2 F2 | E2 E2 | E4 |] %26
w: feet, Ran|through his|robes, and|blessed his|feet.|
V:3
 E2 | A2 Bc/d/ | ce ed | c2 d2 | B2 Bc/d/ | c2 dB | A4 | z2 c2 | dc BA | fe dc | dc BA | %11
w: 3.~Like|fruit- ful * *|showers * of *|rain, That|wa- ter * *|all the *|plain,|De-|scen- * ding *|from * the *|neigh- * boring *|
 e3"^Such       streams          of                       plea    -    sure" z | z4 | z4 | %14
w: hills;|||
"^roll," z2 z B | ce fB | e2 ^d2 | e3 e | ec Af | ec Af | ed cB | c3 a | ge ec | ea fd | cB AG | %25
w: Through|eve- * ry *|friend- ly|soul, Where|love, * like *|heaven- * ly *|dew, * dis *|tills, Where|love, * like *|heaven- * ly *|dew, * dis- *|
 A4 |] %26
w: tills.|
V:4
 E,2 | A,,2 E,2 | A,2 E,2 | A,2 B,2 | E,2 E,2 | A,2 D,E, | A,,4 | z4 | z4 | z4 | z4 | z2 A,2 | %12
 DC B,A, | E,2 E,2 | A,3 G, | A,G, F,G, | A,2 B,2 | E,3 E, | A,2 D,2 | C,2 D,2 | E,2 E,2 | A,3 A, | %22
 C3 A, | A,2 D,2 | E,2 E,2 | A,,4 |] %26

